X: 1
T: Paddy O'Carroll
M: 4/4
L: 1/8
R: hornpipe
K: Dmaj
AG|:FE D2 FE D2|FA F2 FE D2|DF A2 dA F2|EF E2 E2 AG|
FE D2 FE D2|FA F2 FE D2|DF A2 dA F2|1 DE D2 D2 AG:|2 DE D2 D4||
fd f2 ec e2|dc B2 AF D2|fd f2 ec e2|df a2 a4|
fd f2 ec e2|dc B2 AF D2|DF A2 dA F2|DE D2 D4||
